X: 1
T: the Elusive Lover
C: John Sarney
N: Naples, Florida
B: "Gems - The Best of the Country Dance and Song Society", CDSS, 1993, p.67
Z: 2011 John Chambers <jc:trillian.mit.edu>
R: reel
M: C|
L: 1/8
K: G
DE |\
"G"G2GA GFED | "Em"EDGD EFGA | "G"B2Bd cBAG | "Am"AGBG "D"E2DE | "G"G2GA GFED |
"Em"EDGD EFGA | "G"B2Bd "D"cBAc | "G"B2G2 G2 :: Bd | "G"g2Bd g2ag | "C"edc2 "G"d2de |
"F"=f2Ac f2gf | "D"edcA "G"G2Bd | "G"g2fg ageg | "Am"a2ab "D"agef | "G"g2dB GABG | "D"AGFA "G"G2 :|
